X:1
T:The Cruel Brother
M:3/4
L:1/8
K:C
 G2| DG G2 G2| DG G2 GA| B2 BA Bc| d2 z2 d2| dd E2 A2|G-E D3 D| GA B2 d2|\
B-A G2||
